storage/app/icons/tabler/filled/box-align-bottom-right.svg

<!--
version: "2.19"
unicode: "fa8c"
-->
<svg
  xmlns="http://www.w3.org/2000/svg"
  width="24"
  height="24"
  viewBox="0 0 24 24"
  fill="currentColor"
>
  <path d="M19 12h-5a2 2 0 0 0 -2 2v5a2 2 0 0 0 2 2h5a2 2 0 0 0 2 -2v-5a2 2 0 0 0 -2 -2z" />
  <path d="M20 8a1 1 0 0 1 .993 .883l.007 .127a1 1 0 0 1 -1.993 .117l-.007 -.127a1 1 0 0 1 1 -1z" />
  <path d="M20 3a1 1 0 0 1 .993 .883l.007 .127a1 1 0 0 1 -1.993 .117l-.007 -.127a1 1 0 0 1 1 -1z" />
  <path d="M15 3a1 1 0 0 1 .993 .883l.007 .127a1 1 0 0 1 -1.993 .117l-.007 -.127a1 1 0 0 1 1 -1z" />
  <path d="M9 3a1 1 0 0 1 .993 .883l.007 .127a1 1 0 0 1 -1.993 .117l-.007 -.127a1 1 0 0 1 1 -1z" />
  <path d="M9 19a1 1 0 0 1 .993 .883l.007 .127a1 1 0 0 1 -1.993 .117l-.007 -.127a1 1 0 0 1 1 -1z" />
  <path d="M4 3a1 1 0 0 1 .993 .883l.007 .127a1 1 0 0 1 -1.993 .117l-.007 -.127a1 1 0 0 1 1 -1z" />
  <path d="M4 8a1 1 0 0 1 .993 .883l.007 .127a1 1 0 0 1 -1.993 .117l-.007 -.127a1 1 0 0 1 1 -1z" />
  <path d="M4 14a1 1 0 0 1 .993 .883l.007 .127a1 1 0 0 1 -1.993 .117l-.007 -.127a1 1 0 0 1 1 -1z" />
  <path d="M4 19a1 1 0 0 1 .993 .883l.007 .127a1 1 0 0 1 -1.993 .117l-.007 -.127a1 1 0 0 1 1 -1z" />
</svg>

<svg xmlns="http://www.w3.org/2000/svg" width="24" height="24" fill="currentColor" viewBox="0 0 24 24"><path d="M19 12h-5a2 2 0 0 0-2 2v5a2 2 0 0 0 2 2h5a2 2 0 0 0 2-2v-5a2 2 0 0 0-2-2m1-4a1 1 0 0 1 .993.883L21 9.01a1 1 0 0 1-1.993.117L19 9a1 1 0 0 1 1-1m0-5a1 1 0 0 1 .993.883L21 4.01a1 1 0 0 1-1.993.117L19 4a1 1 0 0 1 1-1m-5 0a1 1 0 0 1 .993.883L16 4.01a1 1 0 0 1-1.993.117L14 4a1 1 0 0 1 1-1M9 3a1 1 0 0 1 .993.883L10 4.01a1 1 0 0 1-1.993.117L8 4a1 1 0 0 1 1-1m0 16a1 1 0 0 1 .993.883l.007.127a1 1 0 0 1-1.993.117L8 20a1 1 0 0 1 1-1M4 3a1 1 0 0 1 .993.883L5 4.01a1 1 0 0 1-1.993.117L3 4a1 1 0 0 1 1-1m0 5a1 1 0 0 1 .993.883L5 9.01a1 1 0 0 1-1.993.117L3 9a1 1 0 0 1 1-1m0 6a1 1 0 0 1 .993.883L5 15.01a1 1 0 0 1-1.993.117L3 15a1 1 0 0 1 1-1m0 5a1 1 0 0 1 .993.883L5 20.01a1 1 0 0 1-1.993.117L3 20a1 1 0 0 1 1-1"/></svg>
